assets/features/SecurePaymentSolutions/iec-logo.svg

<svg width="52" height="52" viewBox="0 0 52 52" fill="none" xmlns="http://www.w3.org/2000/svg">
<g clip-path="url(#clip0_1368_8923)">
<path d="M0 52H52V0H0V52Z" fill="#0060AA"/>
<path d="M9.90614 11.248H5.63123V32.3119H9.90614V11.248Z" fill="white"/>
<path d="M28.4128 10.7529H18.0016C16.9987 10.7529 15.516 11.8784 15.516 13.4656V28.9083C15.516 30.1673 16.6596 32.2776 18.6184 32.2776H28.6148V30.4992H21.5225C20.2671 30.4992 19.6683 29.8931 19.6683 29.1283V23.3674C19.6683 22.7649 19.4122 21.7765 20.1662 21.7765H26.4035V20.1857H20.3176C19.5132 20.1857 19.6683 19.6086 19.6683 19.118V14.2625C19.6683 13.7141 19.6503 12.769 20.7072 12.769H28.4128L28.4128 10.7529Z" fill="white"/>
<path d="M46.7713 14.2635C46.7713 14.2635 44.4554 10.3135 39.2246 10.3135C34.9534 10.3135 29.3689 14.3176 29.3689 21.7236C29.3689 29.786 35.7037 32.7477 39.5276 32.7477C45.361 32.7477 47.4749 27.3186 47.4749 27.3186L46.4684 26.3843C46.4684 26.3843 43.7881 31.1858 39.791 31.1858C37.3271 31.1858 33.3913 28.7436 33.3913 21.7237C33.3913 13.9318 36.7247 11.9586 39.791 11.9586C43.5644 11.9586 45.7144 15.3603 45.7144 15.3603L46.7713 14.2635Z" fill="white"/>
<path d="M44.0478 43.4822C45.6748 43.4822 46.9952 42.1042 46.9952 40.4016C46.9952 38.6989 45.6748 37.3174 44.0478 37.3174C42.4172 37.3174 41.1005 38.699 41.1005 40.4016C41.1005 42.1042 42.4171 43.4822 44.0478 43.4822Z" fill="white"/>
<path d="M5.63119 42.4617V43.3527L40.9301 43.3671C40.6776 43.1001 40.4683 42.7971 40.2844 42.4761L5.63119 42.4617ZM39.7874 39.8283H5.63119V40.8419H39.7718C39.7572 40.694 39.7288 40.5533 39.7288 40.4018C39.7288 40.2034 39.7614 40.0158 39.7863 39.8283M5.63013 37.4365V38.342H40.2582C40.2582 38.342 40.2797 38.3131 40.3157 38.2698C40.4889 37.9704 40.6873 37.6854 40.9254 37.4365H5.63013Z" fill="white"/>
</g>
<defs>
<clipPath id="clip0_1368_8923">
<rect width="52" height="52" rx="8" fill="white"/>
</clipPath>
</defs>
</svg>

<svg xmlns="http://www.w3.org/2000/svg" width="52" height="52" fill="none" viewBox="0 0 52 52"><g clip-path="url(#a)"><path fill="#0060aa" d="M0 52h52V0H0z"/><path fill="#fff" d="M9.906 11.248H5.631v21.064h4.275zm18.507-.495H18.002c-1.003 0-2.486 1.125-2.486 2.713v15.442c0 1.26 1.144 3.37 3.102 3.37h9.997v-1.779h-7.092c-1.256 0-1.855-.606-1.855-1.37v-5.762c0-.602-.256-1.59.498-1.59h6.238v-1.591h-6.086c-.805 0-.65-.577-.65-1.068v-4.855c0-.549-.018-1.494 1.04-1.494h7.705zm18.358 3.511s-2.316-3.95-7.546-3.95c-4.272 0-9.856 4.004-9.856 11.41 0 8.062 6.335 11.024 10.159 11.024 5.833 0 7.947-5.43 7.947-5.43l-1.007-.934s-2.68 4.802-6.677 4.802c-2.464 0-6.4-2.442-6.4-9.462 0-7.792 3.334-9.765 6.4-9.765 3.773 0 5.923 3.401 5.923 3.401zm-2.723 29.218c1.627 0 2.947-1.378 2.947-3.08s-1.32-3.085-2.947-3.085c-1.63 0-2.948 1.382-2.948 3.085 0 1.702 1.317 3.08 2.948 3.08m-38.417-1.02v.89l35.3.015a4.6 4.6 0 0 1-.647-.89zm34.156-2.634H5.631v1.014h34.14c-.014-.148-.042-.289-.042-.44 0-.199.032-.386.057-.574M5.63 37.436v.906h34.628s.022-.029.058-.072c.173-.3.371-.585.61-.834z"/></g><defs><clipPath id="a"><rect width="52" height="52" fill="#fff" rx="8"/></clipPath></defs></svg>
